X:0199
M:6/8
L:1/8
Q:3/8=120
K:G
g3 dBd|ege dBd|gfe dcB |ABG FED|
g3 dBd|ege fga|gfe Ad^c|d3  D3:|
d3 BdB|c3  afd|c3  AdA |B3  gdc|

